X:104
T:Shake your Nob Harry. ThoH.104
Q:3/8=100
M:6/8
L:1/8
B:Thompson's Compleat Collection of 120 Favourite Hornpipes.
Z:Village Music Project, Simon Wilson 2016
O:England.
K:Eb
EGB DFB|(c/d/e)c BGE|DBAG2F|E2G FDB,|CA,G, A,CF|CB,A, G,B,E|DFA GBD|(E3E3):|
|:BDE FGA|Bcd eBG|E2c cAF|D2BG2E|eBA GFE|(D/E/F)B, CDE|DFA GBD|(E3E3):|
|:e3g2a|fbde2g|fga bde|cag fdB|cAF BGE|D/E/FB, CDE|DFA GBD|(E3E3):|

